X:652
T:Polska # 652
S:efter Anders Gustaf Andersson
B:Sörmlands musikarkiv - Olof Anderssons uppteckningar 1936, nr 652
W:Fittor i fittor i fall, det är flickornas trall
W:när som de skulle gå vall med korna.
W:Och går de inte dit så slår de till en skit
W:så det skallrar mellan låra.
O:Mörkö, Södermanland
R:Slängpolska
M:3/4
L:1/16
Q:120
K:G
gagf g2bg d2gd | BcBA B2dB G2BG | G3B d3g b3g | g2fg agfe d4 | gagf g2bg d2gd |
BcBA B2dB G2BG | G3B d3g b3g | agfg a4g4 :| [f2A] z2 [f2A] z2 f2ef | g2bg d2gd B2AG |
[f2A] z2 [f2A] z2 f2ef | [g2BD] z2 [g2BD] z2 [g2BD] z2 :|

